X: 22376
T: Lad O'Beirne's
R: reel
M: 4/4
K: Gmajor
Bd dB d2 e^f|g2 bg abge|dBB2 dBGB|cEE2 (3G^FE D2|
Bd dB d2 e^f|g2 bg abg2|DEGA BABc|dBAc BG G2||

